assets/1. 1-F/Cinema/Color/Cinema-color.svg

<svg width="100%" height="100%" viewBox="0 0 32 32" fill="none" xmlns="http://www.w3.org/2000/svg">
<g filter="url(#filter0_ii_18590_1573)">
<rect x="2.50034" y="1.8125" width="27.875" height="27.875" rx="3.6" fill="url(#paint0_linear_18590_1573)"/>
<rect x="2.50034" y="1.8125" width="27.875" height="27.875" rx="3.6" fill="url(#paint1_radial_18590_1573)"/>
</g>
<g filter="url(#filter1_f_18590_1573)">
<path d="M28.6878 4.3125V27.1875" stroke="url(#paint2_linear_18590_1573)" stroke-width="1.5" stroke-linecap="round"/>
</g>
<g filter="url(#filter2_f_18590_1573)">
<path d="M5.9642 3.625H27.7455" stroke="url(#paint3_linear_18590_1573)" stroke-width="1.5" stroke-linecap="round"/>
</g>
<g filter="url(#filter3_f_18590_1573)">
<path d="M19.4109 10.25C19.4109 12.183 17.8439 13.75 15.9109 13.75C13.9779 13.75 12.4109 12.183 12.4109 10.25C12.4109 8.317 13.9779 6.75 15.9109 6.75C17.8439 6.75 19.4109 8.317 19.4109 10.25Z" fill="#579FFF"/>
<path d="M14.9109 14.75C13.5301 14.75 12.4109 15.8693 12.4109 17.25V22.25C12.4109 23.6307 13.5301 24.75 14.9109 24.75H22.9109C24.2916 24.75 25.4109 23.6307 25.4109 22.25V17.25C25.4109 15.8693 24.2916 14.75 22.9109 14.75H14.9109Z" fill="#579FFF"/>
<path d="M7.45773 15.6131V23.9393C7.45773 24.6075 8.26559 24.9421 8.73806 24.4697L11.2068 22.0009C11.3475 21.8603 11.4265 21.6695 11.4265 21.4706V18.0624C11.4265 17.8625 11.3466 17.6708 11.2047 17.53L8.73596 15.0807C8.26264 14.6111 7.45773 14.9463 7.45773 15.6131Z" fill="#579FFF"/>
<path d="M22.9109 13.75C24.2916 13.75 25.4109 12.6307 25.4109 11.25C25.4109 9.86929 24.2916 8.75 22.9109 8.75C21.5301 8.75 20.4109 9.86929 20.4109 11.25C20.4109 12.6307 21.5301 13.75 22.9109 13.75Z" fill="#579FFF"/>
</g>
<g filter="url(#filter4_ii_18590_1573)">
<path d="M19.4109 10.25C19.4109 12.183 17.8439 13.75 15.9109 13.75C13.9779 13.75 12.4109 12.183 12.4109 10.25C12.4109 8.317 13.9779 6.75 15.9109 6.75C17.8439 6.75 19.4109 8.317 19.4109 10.25Z" fill="#FCF2FF"/>
<path d="M14.9109 14.75C13.5301 14.75 12.4109 15.8693 12.4109 17.25V22.25C12.4109 23.6307 13.5301 24.75 14.9109 24.75H22.9109C24.2916 24.75 25.4109 23.6307 25.4109 22.25V17.25C25.4109 15.8693 24.2916 14.75 22.9109 14.75H14.9109Z" fill="#FCF2FF"/>
<path d="M7.45773 15.6131V23.9393C7.45773 24.6075 8.26559 24.9421 8.73806 24.4697L11.2068 22.0009C11.3475 21.8603 11.4265 21.6695 11.4265 21.4706V18.0624C11.4265 17.8625 11.3466 17.6708 11.2047 17.53L8.73596 15.0807C8.26264 14.6111 7.45773 14.9463 7.45773 15.6131Z" fill="#FCF2FF"/>
<path d="M22.9109 13.75C24.2916 13.75 25.4109 12.6307 25.4109 11.25C25.4109 9.86929 24.2916 8.75 22.9109 8.75C21.5301 8.75 20.4109 9.86929 20.4109 11.25C20.4109 12.6307 21.5301 13.75 22.9109 13.75Z" fill="#FCF2FF"/>
</g>
<defs>
<filter id="filter0_ii_18590_1573" x="2.50034" y="0.8125" width="28.875" height="28.875" filterUnits="userSpaceOnUse" color-interpolation-filters="sRGB">
<feFlood flood-opacity="0" result="BackgroundImageFix"/>
<feBlend mode="normal" in="SourceGraphic" in2="BackgroundImageFix" result="shape"/>
<feColorMatrix in="SourceAlpha" type="matrix" values="0 0 0 0 0 0 0 0 0 0 0 0 0 0 0 0 0 0 127 0" result="hardAlpha"/>
<feOffset dx="1" dy="-1"/>
<feGaussianBlur stdDeviation="1.5"/>
<feComposite in2="hardAlpha" operator="arithmetic" k2="-1" k3="1"/>
<feColorMatrix type="matrix" values="0 0 0 0 0.188235 0 0 0 0 0.470588 0 0 0 0 0.843137 0 0 0 1 0"/>
<feBlend mode="normal" in2="shape" result="effect1_innerShadow_18590_1573"/>
<feColorMatrix in="SourceAlpha" type="matrix" values="0 0 0 0 0 0 0 0 0 0 0 0 0 0 0 0 0 0 127 0" result="hardAlpha"/>
<feOffset dy="-1"/>
<feGaussianBlur stdDeviation="1.5"/>
<feComposite in2="hardAlpha" operator="arithmetic" k2="-1" k3="1"/>
<feColorMatrix type="matrix" values="0 0 0 0 0.27451 0 0 0 0 0.34902 0 0 0 0 0.8 0 0 0 1 0"/>
<feBlend mode="normal" in2="effect1_innerShadow_18590_1573" result="effect2_innerShadow_18590_1573"/>
</filter>
<filter id="filter1_f_18590_1573" x="25.9378" y="1.5625" width="5.5" height="28.375" filterUnits="userSpaceOnUse" color-interpolation-filters="sRGB">
<feFlood flood-opacity="0" result="BackgroundImageFix"/>
<feBlend mode="normal" in="SourceGraphic" in2="BackgroundImageFix" result="shape"/>
<feGaussianBlur stdDeviation="1" result="effect1_foregroundBlur_18590_1573"/>
</filter>
<filter id="filter2_f_18590_1573" x="3.2142" y="0.875" width="27.2812" height="5.5" filterUnits="userSpaceOnUse" color-interpolation-filters="sRGB">
<feFlood flood-opacity="0" result="BackgroundImageFix"/>
<feBlend mode="normal" in="SourceGraphic" in2="BackgroundImageFix" result="shape"/>
<feGaussianBlur stdDeviation="1" result="effect1_foregroundBlur_18590_1573"/>
</filter>
<filter id="filter3_f_18590_1573" x="6.45773" y="5.75" width="19.9531" height="20" filterUnits="userSpaceOnUse" color-interpolation-filters="sRGB">
<feFlood flood-opacity="0" result="BackgroundImageFix"/>
<feBlend mode="normal" in="SourceGraphic" in2="BackgroundImageFix" result="shape"/>
<feGaussianBlur stdDeviation="0.5" result="effect1_foregroundBlur_18590_1573"/>
</filter>
<filter id="filter4_ii_18590_1573" x="6.45773" y="6.35" width="19.3531" height="19.4" filterUnits="userSpaceOnUse" color-interpolation-filters="sRGB">
<feFlood flood-opacity="0" result="BackgroundImageFix"/>
<feBlend mode="normal" in="SourceGraphic" in2="BackgroundImageFix" result="shape"/>
<feColorMatrix in="SourceAlpha" type="matrix" values="0 0 0 0 0 0 0 0 0 0 0 0 0 0 0 0 0 0 127 0" result="hardAlpha"/>
<feOffset dx="-1" dy="1"/>
<feGaussianBlur stdDeviation="1"/>
<feComposite in2="hardAlpha" operator="arithmetic" k2="-1" k3="1"/>
<feColorMatrix type="matrix" values="0 0 0 0 0.866667 0 0 0 0 0.819608 0 0 0 0 0.941176 0 0 0 1 0"/>
<feBlend mode="normal" in2="shape" result="effect1_innerShadow_18590_1573"/>
<feColorMatrix in="SourceAlpha" type="matrix" values="0 0 0 0 0 0 0 0 0 0 0 0 0 0 0 0 0 0 127 0" result="hardAlpha"/>
<feOffset dx="0.4" dy="-0.4"/>
<feGaussianBlur stdDeviation="0.5"/>
<feComposite in2="hardAlpha" operator="arithmetic" k2="-1" k3="1"/>
<feColorMatrix type="matrix" values="0 0 0 0 1 0 0 0 0 0.988235 0 0 0 0 1 0 0 0 1 0"/>
<feBlend mode="normal" in2="effect1_innerShadow_18590_1573" result="effect2_innerShadow_18590_1573"/>
</filter>
<linearGradient id="paint0_linear_18590_1573" x1="16.4378" y1="5.38701" x2="16.4378" y2="38.6397" gradientUnits="userSpaceOnUse">
<stop stop-color="#5CB7FF"/>
<stop offset="1" stop-color="#4878DD"/>
</linearGradient>
<radialGradient id="paint1_radial_18590_1573" cx="0" cy="0" r="1" gradientUnits="userSpaceOnUse" gradientTransform="translate(28.1566 3.90625) rotate(136.771) scale(2.14444 2.50466)">
<stop stop-color="#7BD7FF"/>
<stop offset="1" stop-color="#7BD7FF" stop-opacity="0"/>
</radialGradient>
<linearGradient id="paint2_linear_18590_1573" x1="29.1878" y1="4.3125" x2="29.1878" y2="27.1875" gradientUnits="userSpaceOnUse">
<stop stop-color="#7FD9FF"/>
<stop offset="1" stop-color="#639DF4"/>
</linearGradient>
<linearGradient id="paint3_linear_18590_1573" x1="28.9017" y1="3.87502" x2="3.37045" y2="3.87502" gradientUnits="userSpaceOnUse">
<stop stop-color="#7DD8FF"/>
<stop offset="1" stop-color="#5DB6FF"/>
</linearGradient>
</defs>
</svg>

<svg width="100%" height="100%" viewBox="0 0 32 32" xmlns="http://www.w3.org/2000/svg"><g filter="url(#a)"><rect width="27.875" height="27.875" x="2.5" y="1.813" fill="url(#b)" rx="3.6"/><rect width="27.875" height="27.875" x="2.5" y="1.813" fill="url(#c)" rx="3.6"/></g><g filter="url(#d)"><path stroke="url(#e)" stroke-linecap="round" stroke-width="1.5" d="M28.688 4.313v22.875"/></g><g filter="url(#f)"><path stroke="url(#g)" stroke-linecap="round" stroke-width="1.5" d="M5.964 3.625h21.782"/></g><g fill="#579FFF" filter="url(#h)"><path d="M19.41 10.25a3.5 3.5 0 1 1-7 0 3.5 3.5 0 0 1 7 0M14.91 14.75a2.5 2.5 0 0 0-2.5 2.5v5a2.5 2.5 0 0 0 2.5 2.5h8a2.5 2.5 0 0 0 2.5-2.5v-5a2.5 2.5 0 0 0-2.5-2.5zM7.458 15.613v8.326a.75.75 0 0 0 1.28.53l2.469-2.468a.75.75 0 0 0 .22-.53v-3.409a.75.75 0 0 0-.222-.532l-2.469-2.45a.75.75 0 0 0-1.278.533M22.91 13.75a2.5 2.5 0 1 0 0-5 2.5 2.5 0 0 0 0 5"/></g><g fill="#FCF2FF" filter="url(#i)"><path d="M19.41 10.25a3.5 3.5 0 1 1-7 0 3.5 3.5 0 0 1 7 0M14.91 14.75a2.5 2.5 0 0 0-2.5 2.5v5a2.5 2.5 0 0 0 2.5 2.5h8a2.5 2.5 0 0 0 2.5-2.5v-5a2.5 2.5 0 0 0-2.5-2.5zM7.458 15.613v8.326a.75.75 0 0 0 1.28.53l2.469-2.468a.75.75 0 0 0 .22-.53v-3.409a.75.75 0 0 0-.222-.532l-2.469-2.45a.75.75 0 0 0-1.278.533M22.91 13.75a2.5 2.5 0 1 0 0-5 2.5 2.5 0 0 0 0 5"/></g><defs><filter id="a" width="28.875" height="28.875" x="2.5" y=".813" color-interpolation-filters="sRGB" filterUnits="userSpaceOnUse"><feFlood flood-opacity="0" result="BackgroundImageFix"/><feBlend in="SourceGraphic" in2="BackgroundImageFix" result="shape"/><feColorMatrix in="SourceAlpha" result="hardAlpha" values="0 0 0 0 0 0 0 0 0 0 0 0 0 0 0 0 0 0 127 0"/><feOffset dx="1" dy="-1"/><feGaussianBlur stdDeviation="1.5"/><feComposite in2="hardAlpha" k2="-1" k3="1" operator="arithmetic"/><feColorMatrix values="0 0 0 0 0.188235 0 0 0 0 0.470588 0 0 0 0 0.843137 0 0 0 1 0"/><feBlend in2="shape" result="effect1_innerShadow_18590_1573"/><feColorMatrix in="SourceAlpha" result="hardAlpha" values="0 0 0 0 0 0 0 0 0 0 0 0 0 0 0 0 0 0 127 0"/><feOffset dy="-1"/><feGaussianBlur stdDeviation="1.5"/><feComposite in2="hardAlpha" k2="-1" k3="1" operator="arithmetic"/><feColorMatrix values="0 0 0 0 0.27451 0 0 0 0 0.34902 0 0 0 0 0.8 0 0 0 1 0"/><feBlend in2="effect1_innerShadow_18590_1573" result="effect2_innerShadow_18590_1573"/></filter><filter id="d" width="5.5" height="28.375" x="25.938" y="1.563" color-interpolation-filters="sRGB" filterUnits="userSpaceOnUse"><feFlood flood-opacity="0" result="BackgroundImageFix"/><feBlend in="SourceGraphic" in2="BackgroundImageFix" result="shape"/><feGaussianBlur result="effect1_foregroundBlur_18590_1573" stdDeviation="1"/></filter><filter id="f" width="27.281" height="5.5" x="3.214" y=".875" color-interpolation-filters="sRGB" filterUnits="userSpaceOnUse"><feFlood flood-opacity="0" result="BackgroundImageFix"/><feBlend in="SourceGraphic" in2="BackgroundImageFix" result="shape"/><feGaussianBlur result="effect1_foregroundBlur_18590_1573" stdDeviation="1"/></filter><filter id="h" width="19.953" height="20" x="6.458" y="5.75" color-interpolation-filters="sRGB" filterUnits="userSpaceOnUse"><feFlood flood-opacity="0" result="BackgroundImageFix"/><feBlend in="SourceGraphic" in2="BackgroundImageFix" result="shape"/><feGaussianBlur result="effect1_foregroundBlur_18590_1573" stdDeviation=".5"/></filter><filter id="i" width="19.353" height="19.4" x="6.458" y="6.35" color-interpolation-filters="sRGB" filterUnits="userSpaceOnUse"><feFlood flood-opacity="0" result="BackgroundImageFix"/><feBlend in="SourceGraphic" in2="BackgroundImageFix" result="shape"/><feColorMatrix in="SourceAlpha" result="hardAlpha" values="0 0 0 0 0 0 0 0 0 0 0 0 0 0 0 0 0 0 127 0"/><feOffset dx="-1" dy="1"/><feGaussianBlur stdDeviation="1"/><feComposite in2="hardAlpha" k2="-1" k3="1" operator="arithmetic"/><feColorMatrix values="0 0 0 0 0.866667 0 0 0 0 0.819608 0 0 0 0 0.941176 0 0 0 1 0"/><feBlend in2="shape" result="effect1_innerShadow_18590_1573"/><feColorMatrix in="SourceAlpha" result="hardAlpha" values="0 0 0 0 0 0 0 0 0 0 0 0 0 0 0 0 0 0 127 0"/><feOffset dx=".4" dy="-.4"/><feGaussianBlur stdDeviation=".5"/><feComposite in2="hardAlpha" k2="-1" k3="1" operator="arithmetic"/><feColorMatrix values="0 0 0 0 1 0 0 0 0 0.988235 0 0 0 0 1 0 0 0 1 0"/><feBlend in2="effect1_innerShadow_18590_1573" result="effect2_innerShadow_18590_1573"/></filter><linearGradient id="b" x1="16.438" x2="16.438" y1="5.387" y2="38.64" gradientUnits="userSpaceOnUse"><stop stop-color="#5CB7FF"/><stop offset="1" stop-color="#4878DD"/></linearGradient><linearGradient id="e" x1="29.188" x2="29.188" y1="4.313" y2="27.188" gradientUnits="userSpaceOnUse"><stop stop-color="#7FD9FF"/><stop offset="1" stop-color="#639DF4"/></linearGradient><linearGradient id="g" x1="28.902" x2="3.37" y1="3.875" y2="3.875" gradientUnits="userSpaceOnUse"><stop stop-color="#7DD8FF"/><stop offset="1" stop-color="#5DB6FF"/></linearGradient><radialGradient id="c" cx="0" cy="0" r="1" gradientTransform="matrix(-1.56249 1.46876 -1.71548 -1.82495 28.157 3.906)" gradientUnits="userSpaceOnUse"><stop stop-color="#7BD7FF"/><stop offset="1" stop-color="#7BD7FF" stop-opacity="0"/></radialGradient></defs></svg>
